!!!!SEGMENT: pl-cz--iii-666--001-007_scigalski-franciszek--missa-in-c-et-resurrexit.krn
!!!cenid: 18xx:1090
!!!COM: Ścigalski, Franciszek
!!!COM-rismid: pe30002948
!!!CDT: 1782/01/29-1846/09/27
!!!CNT: Polish
!!!OPR: Missa in C
!!!OTL: Et resurrexit
!!!OMV: 007
!!!PDT:
!!!AGN: Sacred; Mass
!!!SMS-siglum: PL-CZ
!!!SMS-shelfmark: III-666
!!!SMS-shelfwork: 001-007 M
!!!SMS-variant:
!!!SMS-altvar:
!!!NIFC-rismid: 300001312
!!!URL-scan: http://repozytorium.nifc.pl/skany/pl-cz-nut--iii-666
!!!ONB-nifc: UWAGA: części Mszy: Kyrie, Gloria, Qui tollis, Quoniam, Credo, Et incarnatus, Et resurrexit, Sanctus, Pleni sunt, Benedictus, Agnus Dei, Dona nobis. UWAGA: „Amen” częścią „Quoniam”
**kern	**kern	**kern	**kern	**kern	**text	**kern	**text	**kern	**text	**kern	**text	**kern	**kern	**kern	**kern	**kern	**kern	**kern	**kern	**kern	**kern
*part18	*part17	*part16	*part15	*part14	*part14	*part13	*part13	*part12	*part12	*part11	*part11	*part10	*part9	*part8	*part7	*part6	*part5	*part4	*part3	*part2	*part1
*staff18	*staff17	*staff16	*staff15	*staff14	*staff14	*staff13	*staff13	*staff12	*staff12	*staff11	*staff11	*staff10	*staff9	*staff8	*staff7	*staff6	*staff5	*staff4	*staff3	*staff2	*staff1
*Iempty	*Iviola	*Ivioln	*Ivioln	*Iempty	*	*Itenor	*	*Ialto	*	*Ivox	*	*Itimp	*Iempty	*Icor	*Icor	*Iempty	*Iempty	*Iempty	*Iclars	*Iflt	*Iflt
*I"Organo .	*I"Viola.	*I"Violino Secondo	*I"Violino Primo.	*I"Baſso!	*	*I"Tenore.	*	*I"Alto	*	*I"Canto	*	*I"Tympano in C. G.	*I"Clarino Principalo. in C.	*I"Corno Secundo in G	*I"Corno Primo in G	*I"Fagotto Secondo .	*I"Fagotto Primo .	*I"Clarinetto Secondo. in C.	*I"Clarinetto Primo in C	*I"Flauto Secondo.	*I"Flauto Primo.
*I'org	*I'vla	*I'vl 2	*I'vl 1	*I'B	*	*I'T	*	*I'A	*	*I'S	*	*I'timp	*I'clar princ	*I'cor 2	*I'cor 1	*I'fg 2	*I'fg 1	*I'cl 2	*I'cl 1	*I'fl 2	*I'fl 1
*clefF4	*clefC3	*clefG2	*clefG2	*clefF4	*	*clefC4	*	*clefC3	*	*clefC1	*	*clefF4	*clefG2	*clefG2	*clefG2	*clefF4	*clefF4	*clefG2	*clefG2	*clefG2	*clefG2
*	*	*	*	*	*	*	*	*	*	*	*	*	*	*Trd0c0	*Trd0c0	*	*	*	*	*	*
*k[]	*k[]	*k[]	*k[]	*k[]	*	*k[]	*	*k[]	*	*k[]	*	*k[]	*k[]	*k[]	*k[]	*k[]	*k[]	*k[]	*k[]	*k[]	*k[]
*C:	*C:	*C:	*C:	*C:	*	*C:	*	*C:	*	*C:	*	*C:	*C:	*C:	*C:	*C:	*C:	*C:	*C:	*C:	*C:
*M3/4	*M3/4	*M3/4	*M3/4	*M3/4	*	*M3/4	*	*M3/4	*	*M3/4	*	*M3/4	*M3/4	*M3/4	*M3/4	*M3/4	*M3/4	*M3/4	*M3/4	*M3/4	*M3/4
=1	=1	=1	=1	=1	=1	=1	=1	=1	=1	=1	=1	=1	=1	=1	=1	=1	=1	=1	=1	=1	=1
*	*	*	*	*2\right	*	*2\right	*	*2\right	*	*2\right	*	*	*	*	*	*	*	*	*	*	*
*	*	*	*	*all\right	*	*	*	*	*	*	*	*	*	*	*	*	*	*	*	*	*
!	!	!	!	!	!	!LO:TX:a:i:t=Allo	!	!LO:TX:a:i:t=Allo	!	!	!	!	!	!	!	!	!	!	!	!	!
!LO:TX:a:t=Et reſsurrexit ut Credo \nDa Capo .	!LO:TX:a:t=Etresurexit ut Credo Da Capo	!LO:TX:a:t=Et resurrexit ut Credo D. Capo	!LO:TX:a:t=Et resurrexit ut Credo Da Capo.	!LO:TX:a:i:t=Allegro	!	!	!	!	!	!LO:TX:a:i:t=Allegro	!	!LO:TX:a:t=Etresurrexit \nut Credo Da \nCapo.	!LO:TX:a:t=Etresurexit ut Credo Da Capo.	!LO:TX:a:t=Etresurrexit ut Credo DaCapo	!LO:TX:a:t=Etresurrexit ut Credo Dacapo	!LO:TX:a:t=Etresurrexit \nut Credo da Capo	!LO:TX:a:t=Etresurrexit ut Credo \nda Capo.	!LO:TX:a:t=Etresurrexit ut Credo Da Capo.	!LO:TX:a:t=Etresurrexit ut Credo Da Capo.	!LO:TX:a:t=Etresurexit ut Credo Da Capo.	!LO:TX:a:t=Etresurexit ut Credo. da
2.ryy	2.ryy	2.ryy	2.ryy	4c\	Et	4c\	Et	4e\	Et	4cc\	Et	2.ryy	2.ryy	2.ryy	2.ryy	2.ryy	2.ryy	2.ryy	2.ryy	2.ryy	2.ryy
.	.	.	.	4c\	re-	4c\	re-	4e\	re-	4cc\	re-	.	.	.	.	.	.	.	.	.	.
.	.	.	.	4c\	-ſur-	4c\	-sur-	4e\	-sur-	4cc\	-sur-	.	.	.	.	.	.	.	.	.	.
=2	=2	=2	=2	=2	=2	=2	=2	=2	=2	=2	=2	=2	=2	=2	=2	=2	=2	=2	=2	=2	=2
2.ryy	2.ryy	2.ryy	2.ryy	2B\	-re-	2d\	-re-	2f\	-re-	2dd\	-re-	2.ryy	2.ryy	2.ryy	2.ryy	2.ryy	2.ryy	2.ryy	2.ryy	2.ryy	2.ryy
.	.	.	.	4B\	-xit	4d\	-xit	4f\	-xit	4dd\	-xit	.	.	.	.	.	.	.	.	.	.
=3	=3	=3	=3	=3	=3	=3	=3	=3	=3	=3	=3	=3	=3	=3	=3	=3	=3	=3	=3	=3	=3
2.ryy	2.ryy	2.ryy	2.ryy	4B-X\	ter-	4c\	ter-	4g\	ter-	4ee\	ter-	2.ryy	2.ryy	2.ryy	2.ryy	2.ryy	2.ryy	2.ryy	2.ryy	2.ryy	2.ryy
.	.	.	.	4B-\	-ti-	4c\	-ti-	4g\	-ti-	4ee\	-ti-	.	.	.	.	.	.	.	.	.	.
.	.	.	.	4B-\	-a	4c\	-a	4g\	-a	4ee\	-a	.	.	.	.	.	.	.	.	.	.
=4	=4	=4	=4	=4	=4	=4	=4	=4	=4	=4	=4	=4	=4	=4	=4	=4	=4	=4	=4	=4	=4
2.ryy	2.ryy	2.ryy	2.ryy	2A\	di-	2c\	Di-	2a\	di-	2ff\	Di-	2.ryy	2.ryy	2.ryy	2.ryy	2.ryy	2.ryy	2.ryy	2.ryy	2.ryy	2.ryy
.	.	.	.	4A\	-e	4c\	-e	4a\	-e	4ff\	-e	.	.	.	.	.	.	.	.	.	.
=5	=5	=5	=5	=5	=5	=5	=5	=5	=5	=5	=5	=5	=5	=5	=5	=5	=5	=5	=5	=5	=5
!	!	!	!	!	!	!	!	!LO:LB:g=original	!	!	!	!	!	!	!	!	!	!	!	!	!
2.ryy	2.ryy	2.ryy	2.ryy	2.G\	se-	2.B\	Se-	2.g\	Se-	2.dd\	se-	2.ryy	2.ryy	2.ryy	2.ryy	2.ryy	2.ryy	2.ryy	2.ryy	2.ryy	2.ryy
=6	=6	=6	=6	=6	=6	=6	=6	=6	=6	=6	=6	=6	=6	=6	=6	=6	=6	=6	=6	=6	=6
!	!	!	!	!	!	!LO:PB:g=original	!	!	!	!LO:LB:g=original	!	!	!	!	!	!	!	!	!	!	!
2.ryy	2.ryy	2.ryy	2.ryy	2G\	-cun-	2B\	-cun-	2g\	-cun-	2dd\	-cun-	2.ryy	2.ryy	2.ryy	2.ryy	2.ryy	2.ryy	2.ryy	2.ryy	2.ryy	2.ryy
.	.	.	.	4G\	-dum	4B\	-dum	4g\	-dum	4dd\	-dum	.	.	.	.	.	.	.	.	.	.
=7	=7	=7	=7	=7	=7	=7	=7	=7	=7	=7	=7	=7	=7	=7	=7	=7	=7	=7	=7	=7	=7
2.ryy	2.ryy	2.ryy	2.ryy	4c\	Scri-	4c\	Scri-	4g\	Scri-	4ee\	scri-	2.ryy	2.ryy	2.ryy	2.ryy	2.ryy	2.ryy	2.ryy	2.ryy	2.ryy	2.ryy
.	.	.	.	4F\	-ptu-	4d\	-ptu-	4a\	-ptu-	4ff\	-ptu-	.	.	.	.	.	.	.	.	.	.
.	.	.	.	4G\	-ras	4B\	-ras	4f\	-ras	4dd\	-ras	.	.	.	.	.	.	.	.	.	.
=8	=8	=8	=8	=8	=8	=8	=8	=8	=8	=8	=8	=8	=8	=8	=8	=8	=8	=8	=8	=8	=8
!	!	!	!	!LO:LB:g=original	!	!	!	!	!	!	!	!	!	!	!	!	!	!	!	!	!
2.ryy	2.ryy	2.ryy	2.ryy	2.c\	et	2.c\	et	2.e\	et	2.cc\	et	2.ryy	2.ryy	2.ryy	2.ryy	2.ryy	2.ryy	2.ryy	2.ryy	2.ryy	2.ryy
=9	=9	=9	=9	=9	=9	=9	=9	=9	=9	=9	=9	=9	=9	=9	=9	=9	=9	=9	=9	=9	=9
2.ryy	2.ryy	2.ryy	2.ryy	2.B\	as-	2.d\	as-	2.f\	as-	2.dd\	as-	2.ryy	2.ryy	2.ryy	2.ryy	2.ryy	2.ryy	2.ryy	2.ryy	2.ryy	2.ryy
=10	=10	=10	=10	=10	=10	=10	=10	=10	=10	=10	=10	=10	=10	=10	=10	=10	=10	=10	=10	=10	=10
!	!	!	!	!	!	!LO:SIC:v:l:s=cen	!	!	!	!	!	!	!	!	!	!	!	!	!	!	!
2.ryy	2.ryy	2.ryy	2.ryy	2.B-X\	-cen-	2.c\	-scen-	2.g\	-cen-	2.ee\	-cen-	2.ryy	2.ryy	2.ryy	2.ryy	2.ryy	2.ryy	2.ryy	2.ryy	2.ryy	2.ryy
=11	=11	=11	=11	=11	=11	=11	=11	=11	=11	=11	=11	=11	=11	=11	=11	=11	=11	=11	=11	=11	=11
2.ryy	2.ryy	2.ryy	2.ryy	2.A\	-dit	2.c\	-dit	2.a\	-dit	2.ff\	-dit	2.ryy	2.ryy	2.ryy	2.ryy	2.ryy	2.ryy	2.ryy	2.ryy	2.ryy	2.ryy
=12	=12	=12	=12	=12	=12	=12	=12	=12	=12	=12	=12	=12	=12	=12	=12	=12	=12	=12	=12	=12	=12
*	*	*	*	*	*ij	*	*	*	*	*	*	*	*	*	*	*	*	*	*	*	*
2.ryy	2.ryy	2.ryy	2.ryy	2G\	et	2B\	et	2g\	et	2dd\	et	2.ryy	2.ryy	2.ryy	2.ryy	2.ryy	2.ryy	2.ryy	2.ryy	2.ryy	2.ryy
.	.	.	.	4G\	as-	4B\	as-	4g\	as-	4dd\	as-	.	.	.	.	.	.	.	.	.	.
=13	=13	=13	=13	=13	=13	=13	=13	=13	=13	=13	=13	=13	=13	=13	=13	=13	=13	=13	=13	=13	=13
2.ryy	2.ryy	2.ryy	2.ryy	2G\	-cen-	2B\	-cen-	2g\	-cen-	2dd\	-cen-	2.ryy	2.ryy	2.ryy	2.ryy	2.ryy	2.ryy	2.ryy	2.ryy	2.ryy	2.ryy
.	.	.	.	4G\	-dit	4B\	-dit	4g\	-dit	4dd\	-dit	.	.	.	.	.	.	.	.	.	.
*	*	*	*	*	*Xij	*	*	*	*	*	*	*	*	*	*	*	*	*	*	*	*
=14	=14	=14	=14	=14	=14	=14	=14	=14	=14	=14	=14	=14	=14	=14	=14	=14	=14	=14	=14	=14	=14
2.ryy	2.ryy	2.ryy	2.ryy	4c\	i[n]	4c\	in	(4g\	in	4ee\	in	2.ryy	2.ryy	2.ryy	2.ryy	2.ryy	2.ryy	2.ryy	2.ryy	2.ryy	2.ryy
.	.	.	.	(4F\	Cae-	4d\	.	4a\)	.	(4ff\	Cae-	.	.	.	.	.	.	.	.	.	.
!	!	!	!	!	!	!	!	!LO:LB:g=original	!	!	!	!	!	!	!	!	!	!	!	!	!
.	.	.	.	4G\)	.	4B\	coe-	4f\	Cae-	4dd\)	.	.	.	.	.	.	.	.	.	.	.
=15	=15	=15	=15	=15	=15	=15	=15	=15	=15	=15	=15	=15	=15	=15	=15	=15	=15	=15	=15	=15	=15
!	!	!	!	!	!	!LO:LB:g=original	!	!	!	!LO:LB:g=original	!	!	!	!	!	!	!	!	!	!	!
2.ryy	2.ryy	2.ryy	2.ryy	4C/	-lum	4c\	-lum	4e\	-lum	4cc\	-lum	2.ryy	2.ryy	2.ryy	2.ryy	2.ryy	2.ryy	2.ryy	2.ryy	2.ryy	2.ryy
.	.	.	.	4r	.	4r	.	4r	.	4r	.	.	.	.	.	.	.	.	.	.	.
.	.	.	.	4r	.	4r	.	4r	.	4r	.	.	.	.	.	.	.	.	.	.	.
=16	=16	=16	=16	=16	=16	=16	=16	=16	=16	=16	=16	=16	=16	=16	=16	=16	=16	=16	=16	=16	=16
2.ryy	2.ryy	2.ryy	2.ryy	4c\	Se-	4c\	se-	4g\	Se-	4ee\	se-	2.ryy	2.ryy	2.ryy	2.ryy	2.ryy	2.ryy	2.ryy	2.ryy	2.ryy	2.ryy
.	.	.	.	4c\	-det	4c\	-det	4g\	-det	4ee\	-det	.	.	.	.	.	.	.	.	.	.
.	.	.	.	4c\	ad	4c\	ad	4g\	ad	4ee\	ad	.	.	.	.	.	.	.	.	.	.
=17	=17	=17	=17	=17	=17	=17	=17	=17	=17	=17	=17	=17	=17	=17	=17	=17	=17	=17	=17	=17	=17
2.ryy	2.ryy	2.ryy	2.ryy	4.B\	dex-	4.d\	dex-	4.g\	dex-	4.dd\	dex-	2.ryy	2.ryy	2.ryy	2.ryy	2.ryy	2.ryy	2.ryy	2.ryy	2.ryy	2.ryy
.	.	.	.	8B\	-te-	8d\	-te-	8g\	-te-	8dd\	-te-	.	.	.	.	.	.	.	.	.	.
.	.	.	.	4B\	-ram	4d\	-ram	4g\	-ram	4dd\	-ram	.	.	.	.	.	.	.	.	.	.
=18	=18	=18	=18	=18	=18	=18	=18	=18	=18	=18	=18	=18	=18	=18	=18	=18	=18	=18	=18	=18	=18
*	*	*	*	*	*	*	*ij	*	*ij	*	*	*	*	*	*	*	*	*	*	*	*
!	!	!	!	!LO:LB:g=original	!	!	!	!	!	!	!	!	!	!	!	!	!	!	!	!	!
2.ryy	2.ryy	2.ryy	2.ryy	4A\	dex-	4A\	dex-	4f#X\	dex-	4cc\	dex-	2.ryy	2.ryy	2.ryy	2.ryy	2.ryy	2.ryy	2.ryy	2.ryy	2.ryy	2.ryy
.	.	.	.	4F#X\	-te-	4A\	-te-	4f#\	-te-	4cc\	-te-	.	.	.	.	.	.	.	.	.	.
.	.	.	.	4D\	-ram	4A\	-ram	4f#\	-ram	4cc\	-ram	.	.	.	.	.	.	.	.	.	.
*	*	*	*	*	*	*	*Xij	*	*Xij	*	*	*	*	*	*	*	*	*	*	*	*
=19	=19	=19	=19	=19	=19	=19	=19	=19	=19	=19	=19	=19	=19	=19	=19	=19	=19	=19	=19	=19	=19
2.ryy	2.ryy	2.ryy	2.ryy	2G\	Pa-	2d\	Pa-	2g\	Pa-	2b\	Pa-	2.ryy	2.ryy	2.ryy	2.ryy	2.ryy	2.ryy	2.ryy	2.ryy	2.ryy	2.ryy
.	.	.	.	4G\	-tris	4d\	-tris	4g\	-tris	4b\	-tris	.	.	.	.	.	.	.	.	.	.
=20	=20	=20	=20	=20	=20	=20	=20	=20	=20	=20	=20	=20	=20	=20	=20	=20	=20	=20	=20	=20	=20
2.ryy	2.ryy	2.ryy	2.ryy	4c\	et	4.g\	et	4.g\	et	4.a\	et	2.ryy	2.ryy	2.ryy	2.ryy	2.ryy	2.ryy	2.ryy	2.ryy	2.ryy	2.ryy
.	.	.	.	8c\	i-	.	.	.	.	.	.	.	.	.	.	.	.	.	.	.	.
.	.	.	.	8c\	-te-	8g\	i-	8g\	i-	8a\	i-	.	.	.	.	.	.	.	.	.	.
.	.	.	.	8d\	-rum	8g\	-te-	8g\	-te-	8b\	-te-	.	.	.	.	.	.	.	.	.	.
.	.	.	.	8d\	ven-	8g\	-rum	8g\	-rum	8b\	-rum	.	.	.	.	.	.	.	.	.	.
=21	=21	=21	=21	=21	=21	=21	=21	=21	=21	=21	=21	=21	=21	=21	=21	=21	=21	=21	=21	=21	=21
!	!	!	!	!	!	!	!	!LO:LB:g=original	!	!LO:LB:g=original	!	!	!	!	!	!	!	!	!	!	!
2.ryy	2.ryy	2.ryy	2.ryy	4.e\	-tu-	4.g\	ven-	4.g\	ven-	4.cc\	ven-	2.ryy	2.ryy	2.ryy	2.ryy	2.ryy	2.ryy	2.ryy	2.ryy	2.ryy	2.ryy
.	.	.	.	8e\	-rus	8g\	-tu-	8g\	-tu-	8cc\	-tu-	.	.	.	.	.	.	.	.	.	.
!	!	!	!	!LO:SIC:v:l:s=est	!	!	!	!	!	!	!	!	!	!	!	!	!	!	!	!	!
.	.	.	.	8d\	ets	8g\	-rus	8g\	-rus	8b\	-rus	.	.	.	.	.	.	.	.	.	.
.	.	.	.	8d\	cum	8g\	eſt	8g\	est	8b\	est	.	.	.	.	.	.	.	.	.	.
=22	=22	=22	=22	=22	=22	=22	=22	=22	=22	=22	=22	=22	=22	=22	=22	=22	=22	=22	=22	=22	=22
!	!	!	!	!	!	!LO:LB:g=original	!	!	!	!	!	!	!	!	!	!	!	!	!	!	!
2.ryy	2.ryy	2.ryy	2.ryy	4.c\	glo-	4.g\	cum	4.g\	Cum	4.a\	cum	2.ryy	2.ryy	2.ryy	2.ryy	2.ryy	2.ryy	2.ryy	2.ryy	2.ryy	2.ryy
.	.	.	.	8c\	-ri-	8g\	glo-	8g\	glo-	8a\	Glo-	.	.	.	.	.	.	.	.	.	.
.	.	.	.	4d\	-a	8g\	-ri-	8g\	-ri-	8b\	-ri-	.	.	.	.	.	.	.	.	.	.
.	.	.	.	.	.	8g\	-a	8g\	-a	8b\	-a	.	.	.	.	.	.	.	.	.	.
=23	=23	=23	=23	=23	=23	=23	=23	=23	=23	=23	=23	=23	=23	=23	=23	=23	=23	=23	=23	=23	=23
2.ryy	2.ryy	2.ryy	2.ryy	4.e\	ju-	4.g\	ju-	4.g\	ju-	4.cc\	ju-	2.ryy	2.ryy	2.ryy	2.ryy	2.ryy	2.ryy	2.ryy	2.ryy	2.ryy	2.ryy
.	.	.	.	8e\	-di-	8g\	-di-	8g\	-di-	8cc\	-di-	.	.	.	.	.	.	.	.	.	.
.	.	.	.	8d\	-ca-	8g\	-ca-	8g\	-ca-	8b\	-ca-	.	.	.	.	.	.	.	.	.	.
.	.	.	.	8d\	-re	8g\	-re	8g\	-re	8b\	-re	.	.	.	.	.	.	.	.	.	.
=24	=24	=24	=24	=24	=24	=24	=24	=24	=24	=24	=24	=24	=24	=24	=24	=24	=24	=24	=24	=24	=24
!	!	!	!	!LO:LB:g=original	!	!	!	!	!	!LO:SIC:v:s=4g\	!	!	!	!	!	!	!	!	!	!	!
2.ryy	2.ryy	2.ryy	2.ryy	4c#X\	vi-	4e\	vi-	4b-X\	vi-	4a\	vi-	2.ryy	2.ryy	2.ryy	2.ryy	2.ryy	2.ryy	2.ryy	2.ryy	2.ryy	2.ryy
.	.	.	.	4c#\	-vos	4e\	-vos	4b-\	-vos	4gg\	-vos	.	.	.	.	.	.	.	.	.	.
.	.	.	.	4c#\	et	4e\	et	4b-\	et	4gg\	et	.	.	.	.	.	.	.	.	.	.
=25	=25	=25	=25	=25	=25	=25	=25	=25	=25	=25	=25	=25	=25	=25	=25	=25	=25	=25	=25	=25	=25
2.ryy	2.ryy	2.ryy	2.ryy	8d\	Mor-	8d\	mor-	8bn\	mor-	8gg\	mor-	2.ryy	2.ryy	2.ryy	2.ryy	2.ryy	2.ryy	2.ryy	2.ryy	2.ryy	2.ryy
.	.	.	.	8D/	-tu-	8d\	-tu-	8a\	-tu-	8ff#X\	-tu-	.	.	.	.	.	.	.	.	.	.
!	!	!	!	!	!	!	!	!	!	!LO:LB:g=original	!	!	!	!	!	!	!	!	!	!	!
.	.	.	.	4D/	-os	4d\	-os	4a\	-os	4ff#\	-os	.	.	.	.	.	.	.	.	.	.
!	!	!	!	!	!	!	!	!	!	!LO:TX:a:i:t=Solo	!	!	!	!	!	!	!	!	!	!	!
.	.	.	.	4r	.	4r	.	4r	.	4r	.	.	.	.	.	.	.	.	.	.	.
=26	=26	=26	=26	=26	=26	=26	=26	=26	=26	=26	=26	=26	=26	=26	=26	=26	=26	=26	=26	=26	=26
!	!	!	!	!LO:TX:a:t=2	!	!LO:TX:a:t=2	!	!LO:TX:a:i:t=Solo	!	!	!	!	!	!	!	!	!	!	!	!	!
!	!	!	!	!	!	!	!	!LO:LB:g=original	!	!	!	!	!	!	!	!	!	!	!	!	!
2.ryy	2.ryy	2.ryy	2.ryy	1.r	.	1.r	.	(4g\	Cu-	(4b\	Cu-	2.ryy	2.ryy	2.ryy	2.ryy	2.ryy	2.ryy	2.ryy	2.ryy	2.ryy	2.ryy
.	.	.	.	.	.	.	.	4f#X\)	.	4a\)	.	.	.	.	.	.	.	.	.	.	.
.	.	.	.	.	.	.	.	4g\	-jus	4b\	-jus	.	.	.	.	.	.	.	.	.	.
=27	=27	=27	=27	=27	=27	=27	=27	=27	=27	=27	=27	=27	=27	=27	=27	=27	=27	=27	=27	=27	=27
2.ryy	2.ryy	2.ryy	2.ryy	.	.	.	.	(8a\L	re-	(8cc\L	re-	2.ryy	2.ryy	2.ryy	2.ryy	2.ryy	2.ryy	2.ryy	2.ryy	2.ryy	2.ryy
.	.	.	.	.	.	.	.	8f#X\J)	.	8a\J)	.	.	.	.	.	.	.	.	.	.	.
.	.	.	.	.	.	.	.	4f#\	-gni	4a\	-gni	.	.	.	.	.	.	.	.	.	.
.	.	.	.	.	.	.	.	4r	.	4r	.	.	.	.	.	.	.	.	.	.	.
=28	=28	=28	=28	=28	=28	=28	=28	=28	=28	=28	=28	=28	=28	=28	=28	=28	=28	=28	=28	=28	=28
!	!	!	!	!LO:TX:a:i:t=Solo	!	!LO:TX:a:i:t=Solo	!	!LO:TX:a:t=2.	!	!LO:TX:a:t=2.	!	!	!	!	!	!	!	!	!	!	!
2.ryy	2.ryy	2.ryy	2.ryy	4F#X\	non	4A\	non	1.r	.	1.r	.	2.ryy	2.ryy	2.ryy	2.ryy	2.ryy	2.ryy	2.ryy	2.ryy	2.ryy	2.ryy
.	.	.	.	4E#X\	e-	4G#X\	e-	.	.	.	.	.	.	.	.	.	.	.	.	.	.
.	.	.	.	4F#\	-rit	4A\	-rit	.	.	.	.	.	.	.	.	.	.	.	.	.	.
=29	=29	=29	=29	=29	=29	=29	=29	=29	=29	=29	=29	=29	=29	=29	=29	=29	=29	=29	=29	=29	=29
!	!	!	!	!LO:TX:t=P:problem:mixed beam	!	!	!	!	!	!	!	!	!	!	!	!	!	!	!	!	!
2.ryy	2.ryy	2.ryy	2.ryy	(8G\L	fi-	8B\L	fi-	.	.	.	.	2.ryy	2.ryy	2.ryy	2.ryy	2.ryy	2.ryy	2.ryy	2.ryy	2.ryy	2.ryy
.	.	.	.	8BB/J)	.	8Gn\J	.	.	.	.	.	.	.	.	.	.	.	.	.	.	.
.	.	.	.	4BB/	-nis	4G\	-nis	.	.	.	.	.	.	.	.	.	.	.	.	.	.
.	.	.	.	4r	.	4r	.	.	.	.	.	.	.	.	.	.	.	.	.	.	.
=30	=30	=30	=30	=30	=30	=30	=30	=30	=30	=30	=30	=30	=30	=30	=30	=30	=30	=30	=30	=30	=30
!	!	!	!	!LO:TX:a:t=2	!	!LO:TX:a:t=2	!	!	!	!	!	!	!	!	!	!	!	!	!	!	!
*	*	*	*	*	*	*	*	*	*ij	*	*	*	*	*	*	*	*	*	*	*	*
!	!	!	!	!	!	!LO:LB:g=original	!	!	!	!	!	!	!	!	!	!	!	!	!	!	!
2.ryy	2.ryy	2.ryy	2.ryy	1.r	.	1.r	.	(4g\	Cu-	(4b\	Cu-	2.ryy	2.ryy	2.ryy	2.ryy	2.ryy	2.ryy	2.ryy	2.ryy	2.ryy	2.ryy
.	.	.	.	.	.	.	.	4f#X\)	.	4a\)	.	.	.	.	.	.	.	.	.	.	.
.	.	.	.	.	.	.	.	4g\	-jus	4b\	-jus	.	.	.	.	.	.	.	.	.	.
=31	=31	=31	=31	=31	=31	=31	=31	=31	=31	=31	=31	=31	=31	=31	=31	=31	=31	=31	=31	=31	=31
2.ryy	2.ryy	2.ryy	2.ryy	.	.	.	.	8a\L	re-	(8cc\L	re-	2.ryy	2.ryy	2.ryy	2.ryy	2.ryy	2.ryy	2.ryy	2.ryy	2.ryy	2.ryy
.	.	.	.	.	.	.	.	8f#X\J	.	8a\J)	.	.	.	.	.	.	.	.	.	.	.
.	.	.	.	.	.	.	.	4f#\	-gni	4a\	-gni	.	.	.	.	.	.	.	.	.	.
*	*	*	*	*	*	*	*	*	*Xij	*	*	*	*	*	*	*	*	*	*	*	*
.	.	.	.	.	.	.	.	4r	.	4r	.	.	.	.	.	.	.	.	.	.	.
=32	=32	=32	=32	=32	=32	=32	=32	=32	=32	=32	=32	=32	=32	=32	=32	=32	=32	=32	=32	=32	=32
!	!	!	!	!	!	!	!	!LO:TX:a:t=2.	!	!LO:TX:a:t=2	!	!	!	!	!	!	!	!	!	!	!
2.ryy	2.ryy	2.ryy	2.ryy	4F#X\	non	4A\	non	1.r	.	1.r	.	2.ryy	2.ryy	2.ryy	2.ryy	2.ryy	2.ryy	2.ryy	2.ryy	2.ryy	2.ryy
.	.	.	.	4E#X\	e-	4G#X\	e-	.	.	.	.	.	.	.	.	.	.	.	.	.	.
.	.	.	.	4F#\	-rit	4A\	-rit	.	.	.	.	.	.	.	.	.	.	.	.	.	.
=33	=33	=33	=33	=33	=33	=33	=33	=33	=33	=33	=33	=33	=33	=33	=33	=33	=33	=33	=33	=33	=33
!	!	!	!	!LO:TX:t=P:problem:mixed beam	!	!	!	!	!	!	!	!	!	!	!	!	!	!	!	!	!
!	!	!	!	!LO:LB:g=original	!	!	!	!	!	!	!	!	!	!	!	!	!	!	!	!	!
2.ryy	2.ryy	2.ryy	2.ryy	(8G\L	fi-	8B\L	fi-	.	.	.	.	2.ryy	2.ryy	2.ryy	2.ryy	2.ryy	2.ryy	2.ryy	2.ryy	2.ryy	2.ryy
.	.	.	.	8BB/J)	.	8Gn\J	.	.	.	.	.	.	.	.	.	.	.	.	.	.	.
.	.	.	.	4BB/	-nis	4G\	-nis	.	.	.	.	.	.	.	.	.	.	.	.	.	.
.	.	.	.	4r	.	4r	.	.	.	.	.	.	.	.	.	.	.	.	.	.	.
=34	=34	=34	=34	=34	=34	=34	=34	=34	=34	=34	=34	=34	=34	=34	=34	=34	=34	=34	=34	=34	=34
2.ryy	2.ryy	2.ryy	2.ryy	2B\	et	4G\	et	4dd\	Et	4ffn\	Et	2.ryy	2.ryy	2.ryy	2.ryy	2.ryy	2.ryy	2.ryy	2.ryy	2.ryy	2.ryy
!	!	!	!	!	!	!	!	!	!	!LO:LB:g=original	!	!	!	!	!	!	!	!	!	!	!
.	.	.	.	.	.	4G\	in	4dd\	in	4ff\	in	.	.	.	.	.	.	.	.	.	.
.	.	.	.	4B\	in	4G\	Spi-	4dd\	Spi-	4ff\	Spi-	.	.	.	.	.	.	.	.	.	.
=35	=35	=35	=35	=35	=35	=35	=35	=35	=35	=35	=35	=35	=35	=35	=35	=35	=35	=35	=35	=35	=35
2.ryy	2.ryy	2.ryy	2.ryy	4.c\	Spi-	2c\	-ri-	2cc\	-ri-	2ee\	-ri-	2.ryy	2.ryy	2.ryy	2.ryy	2.ryy	2.ryy	2.ryy	2.ryy	2.ryy	2.ryy
.	.	.	.	8c\	-ri-	.	.	.	.	.	.	.	.	.	.	.	.	.	.	.	.
.	.	.	.	4c\	-tum	4c\	-tum	4cc\	-tum	4ee\	-tum	.	.	.	.	.	.	.	.	.	.
=36	=36	=36	=36	=36	=36	=36	=36	=36	=36	=36	=36	=36	=36	=36	=36	=36	=36	=36	=36	=36	=36
!	!	!	!	!	!	!	!	!LO:LB:g=original	!	!	!	!	!	!	!	!	!	!	!	!	!
2.ryy	2.ryy	2.ryy	2.ryy	2G#X\	San-	2e\	San-	2b\	San-	2dd\	San-	2.ryy	2.ryy	2.ryy	2.ryy	2.ryy	2.ryy	2.ryy	2.ryy	2.ryy	2.ryy
.	.	.	.	4G#\	-ctum	4e\	-ctum	4b\	-ctum	4dd\	-ctum	.	.	.	.	.	.	.	.	.	.
=37	=37	=37	=37	=37	=37	=37	=37	=37	=37	=37	=37	=37	=37	=37	=37	=37	=37	=37	=37	=37	=37
2.ryy	2.ryy	2.ryy	2.ryy	4.A\	Do-	4.e\	do-	4.a\	Do-	4.cc\	Do-	2.ryy	2.ryy	2.ryy	2.ryy	2.ryy	2.ryy	2.ryy	2.ryy	2.ryy	2.ryy
.	.	.	.	8A\	-mi-	8e\	-mi-	8a\	-mi-	8cc\	-mi-	.	.	.	.	.	.	.	.	.	.
.	.	.	.	4A\	-n(um)	4e\	-num	4a\	-num	4cc\	-num	.	.	.	.	.	.	.	.	.	.
=38	=38	=38	=38	=38	=38	=38	=38	=38	=38	=38	=38	=38	=38	=38	=38	=38	=38	=38	=38	=38	=38
2.ryy	2.ryy	2.ryy	2.ryy	2F#X\	et	2d\	et	2a\	et	2cc\	et	2.ryy	2.ryy	2.ryy	2.ryy	2.ryy	2.ryy	2.ryy	2.ryy	2.ryy	2.ryy
.	.	.	.	4F#\	vi-	4d\	in	4a\	vi-	4cc\	vi-	.	.	.	.	.	.	.	.	.	.
=39	=39	=39	=39	=39	=39	=39	=39	=39	=39	=39	=39	=39	=39	=39	=39	=39	=39	=39	=39	=39	=39
2.ryy	2.ryy	2.ryy	2.ryy	(4G\	-vi-	4d\	vi-	2g\	-vi-	(4b\	-vi-	2.ryy	2.ryy	2.ryy	2.ryy	2.ryy	2.ryy	2.ryy	2.ryy	2.ryy	2.ryy
.	.	.	.	4A\)	.	4c\	-[vi]-	.	.	4cc\)	.	.	.	.	.	.	.	.	.	.	.
.	.	.	.	4B\	-fi-	4d\	-fi-	4g\	-fi-	4dd\	-fi-	.	.	.	.	.	.	.	.	.	.
=40	=40	=40	=40	=40	=40	=40	=40	=40	=40	=40	=40	=40	=40	=40	=40	=40	=40	=40	=40	=40	=40
!	!	!	!	!LO:LB:g=original	!	!	!	!	!	!	!	!	!	!	!	!	!	!	!	!	!
2.ryy	2.ryy	2.ryy	2.ryy	(4c\	-can-	4e\	-can-	(4g\	-can-	(4ee\	-can-	2.ryy	2.ryy	2.ryy	2.ryy	2.ryy	2.ryy	2.ryy	2.ryy	2.ryy	2.ryy
.	.	.	.	4A\)	.	4d\	.	4cc\)	.	4ff#X\)	.	.	.	.	.	.	.	.	.	.	.
.	.	.	.	4B\	-tem	4d\	-tem	4b\	-tem	4gg\	-tem	.	.	.	.	.	.	.	.	.	.
=41	=41	=41	=41	=41	=41	=41	=41	=41	=41	=41	=41	=41	=41	=41	=41	=41	=41	=41	=41	=41	=41
!	!	!	!	!	!	!	!	!	!	!LO:LB:g=original	!	!	!	!	!	!	!	!	!	!	!
2.ryy	2.ryy	2.ryy	2.ryy	4c#X\	vi-	4e\	vi-	4b-X\	vi-	4gg\	vi-	2.ryy	2.ryy	2.ryy	2.ryy	2.ryy	2.ryy	2.ryy	2.ryy	2.ryy	2.ryy
.	.	.	.	4c#\	-vi-	4e\	-vi-	4b-\	-vi-	4gg\	-vi-	.	.	.	.	.	.	.	.	.	.
.	.	.	.	4c#\	-fi-	4e\	-fi-	4b-\	-fi-	4gg\	-fi-	.	.	.	.	.	.	.	.	.	.
=42	=42	=42	=42	=42	=42	=42	=42	=42	=42	=42	=42	=42	=42	=42	=42	=42	=42	=42	=42	=42	=42
2.ryy	2.ryy	2.ryy	2.ryy	4cn\	-can-	4d\	-can-	(8bn\L	-can-	8gg\L	-can-	2.ryy	2.ryy	2.ryy	2.ryy	2.ryy	2.ryy	2.ryy	2.ryy	2.ryy	2.ryy
.	.	.	.	.	.	.	.	8a\J)	.	8ff#X\J	.	.	.	.	.	.	.	.	.	.	.
.	.	.	.	4c\	-tem	4d\	-tem	4a\	-tem	4ff#\	-tem	.	.	.	.	.	.	.	.	.	.
.	.	.	.	4r	.	4r	.	4r	.	4r	.	.	.	.	.	.	.	.	.	.	.
=43	=43	=43	=43	=43	=43	=43	=43	=43	=43	=43	=43	=43	=43	=43	=43	=43	=43	=43	=43	=43	=43
!	!	!	!	!	!	!	!	!LO:LB:g=original	!	!	!	!	!	!	!	!	!	!	!	!	!
2.ryy	2.ryy	2.ryy	2.ryy	(4B\	qui	4g\	qui	(4g\	qui-	(4dd\	Qui	2.ryy	2.ryy	2.ryy	2.ryy	2.ryy	2.ryy	2.ryy	2.ryy	2.ryy	2.ryy
.	.	.	.	4A\)	.	4d\	.	4f#X\)	.	4cc\)	.	.	.	.	.	.	.	.	.	.	.
.	.	.	.	4G\	cum	4d\	cum	4g\	-cum	4b\	cum	.	.	.	.	.	.	.	.	.	.
=44	=44	=44	=44	=44	=44	=44	=44	=44	=44	=44	=44	=44	=44	=44	=44	=44	=44	=44	=44	=44	=44
2.ryy	2.ryy	2.ryy	2.ryy	2F#X\	Pa-	2d\	Pa-	2a\	Pa-	2cc\	Pa-	2.ryy	2.ryy	2.ryy	2.ryy	2.ryy	2.ryy	2.ryy	2.ryy	2.ryy	2.ryy
.	.	.	.	4G\	-tre	4d\	-tre	4g\	-tre	4b\	-tre	.	.	.	.	.	.	.	.	.	.
=45	=45	=45	=45	=45	=45	=45	=45	=45	=45	=45	=45	=45	=45	=45	=45	=45	=45	=45	=45	=45	=45
2.ryy	2.ryy	2.ryy	2.ryy	4c\	et	4e\	et	4g\	et	4ee\	et	2.ryy	2.ryy	2.ryy	2.ryy	2.ryy	2.ryy	2.ryy	2.ryy	2.ryy	2.ryy
.	.	.	.	4d\	fi-	4d\	fi-	4b\	fi-	4gg\	fi-	.	.	.	.	.	.	.	.	.	.
.	.	.	.	4D/	-li-	4d\	-li-	4a\	-li-	4ff#X\	-li-	.	.	.	.	.	.	.	.	.	.
=46	=46	=46	=46	=46	=46	=46	=46	=46	=46	=46	=46	=46	=46	=46	=46	=46	=46	=46	=46	=46	=46
2.ryy	2.ryy	2.ryy	2.ryy	4G\	-o	4d\	-o	4b\	-o	4gg\	-o	2.ryy	2.ryy	2.ryy	2.ryy	2.ryy	2.ryy	2.ryy	2.ryy	2.ryy	2.ryy
.	.	.	.	4r	.	4r	.	4r	.	4r	.	.	.	.	.	.	.	.	.	.	.
.	.	.	.	4r	.	4r	.	4r	.	4r	.	.	.	.	.	.	.	.	.	.	.
=47	=47	=47	=47	=47	=47	=47	=47	=47	=47	=47	=47	=47	=47	=47	=47	=47	=47	=47	=47	=47	=47
!	!	!	!	!LO:TX:a:t=3.	!	!LO:TX:a:t=3	!	!LO:TX:a:t=3.	!	!LO:TX:a:t=3.	!	!	!	!	!	!	!	!	!	!	!
!	!	!	!	!LO:LB:g=original	!	!LO:LB:g=original	!	!	!	!	!	!	!	!	!	!	!	!	!	!	!
2.ryy	2.ryy	2.ryy	2.ryy	1.r	.	1.r	.	1.r	.	1.	.	2.ryy	2.ryy	2.ryy	2.ryy	2.ryy	2.ryy	2.ryy	2.ryy	2.ryy	2.ryy
=48	=48	=48	=48	=48	=48	=48	=48	=48	=48	=48	=48	=48	=48	=48	=48	=48	=48	=48	=48	=48	=48
2.ryy	2.ryy	2.ryy	2.ryy	.	.	.	.	.	.	.	.	2.ryy	2.ryy	2.ryy	2.ryy	2.ryy	2.ryy	2.ryy	2.ryy	2.ryy	2.ryy
=49	=49	=49	=49	=49	=49	=49	=49	=49	=49	=49	=49	=49	=49	=49	=49	=49	=49	=49	=49	=49	=49
2.ryy	2.ryy	2.ryy	2.ryy	2.r	.	2.r	.	2.r	.	2.r	.	2.ryy	2.ryy	2.ryy	2.ryy	2.ryy	2.ryy	2.ryy	2.ryy	2.ryy	2.ryy
=50	=50	=50	=50	=50	=50	=50	=50	=50	=50	=50	=50	=50	=50	=50	=50	=50	=50	=50	=50	=50	=50
2.ryy	2.ryy	2.ryy	2.ryy	2.c\	Si-	2.c\	Si-	2.e\	Si-	2.cc\	si-	2.ryy	2.ryy	2.ryy	2.ryy	2.ryy	2.ryy	2.ryy	2.ryy	2.ryy	2.ryy
=51	=51	=51	=51	=51	=51	=51	=51	=51	=51	=51	=51	=51	=51	=51	=51	=51	=51	=51	=51	=51	=51
2.ryy	2.ryy	2.ryy	2.ryy	2.B\	-mul	2.d\	-mul	2.f\	-mul	2.dd\	-mul	2.ryy	2.ryy	2.ryy	2.ryy	2.ryy	2.ryy	2.ryy	2.ryy	2.ryy	2.ryy
=52	=52	=52	=52	=52	=52	=52	=52	=52	=52	=52	=52	=52	=52	=52	=52	=52	=52	=52	=52	=52	=52
2.ryy	2.ryy	2.ryy	2.ryy	2B-X\	a-	2c\	a-	2g\	a-	2ee\	a-	2.ryy	2.ryy	2.ryy	2.ryy	2.ryy	2.ryy	2.ryy	2.ryy	2.ryy	2.ryy
.	.	.	.	4B-\	-do-	4c\	-do-	4g\	-do-	4ee\	-do-	.	.	.	.	.	.	.	.	.	.
=53	=53	=53	=53	=53	=53	=53	=53	=53	=53	=53	=53	=53	=53	=53	=53	=53	=53	=53	=53	=53	=53
2.ryy	2.ryy	2.ryy	2.ryy	2A\	-ra-	2c\	-ra-	2a\	-ra-	2ff\	-ra-	2.ryy	2.ryy	2.ryy	2.ryy	2.ryy	2.ryy	2.ryy	2.ryy	2.ryy	2.ryy
.	.	.	.	4A\	-tur	4c\	-tur	4a\	-tur	4ff\	-tur	.	.	.	.	.	.	.	.	.	.
=54	=54	=54	=54	=54	=54	=54	=54	=54	=54	=54	=54	=54	=54	=54	=54	=54	=54	=54	=54	=54	=54
!	!	!	!	!	!	!	!	!LO:LB:g=original	!	!	!	!	!	!	!	!	!	!	!	!	!
2.ryy	2.ryy	2.ryy	2.ryy	4G\	et	4B\	et	4g\	et	4dd\	et	2.ryy	2.ryy	2.ryy	2.ryy	2.ryy	2.ryy	2.ryy	2.ryy	2.ryy	2.ryy
.	.	.	.	4G\	con-	4B\	con-	4g\	con-	4dd\	con-	.	.	.	.	.	.	.	.	.	.
.	.	.	.	4G\	-glo-	4B\	-glo-	4g\	-glo-	4dd\	-glo-	.	.	.	.	.	.	.	.	.	.
=55	=55	=55	=55	=55	=55	=55	=55	=55	=55	=55	=55	=55	=55	=55	=55	=55	=55	=55	=55	=55	=55
2.ryy	2.ryy	2.ryy	2.ryy	2G\	-ri-	2B\	-ri-	2g\	-ri-	2dd\	-ri-	2.ryy	2.ryy	2.ryy	2.ryy	2.ryy	2.ryy	2.ryy	2.ryy	2.ryy	2.ryy
.	.	.	.	4G\	-fi-	4B\	-fi-	4g\	-fi-	4dd\	-fi-	.	.	.	.	.	.	.	.	.	.
=56	=56	=56	=56	=56	=56	=56	=56	=56	=56	=56	=56	=56	=56	=56	=56	=56	=56	=56	=56	=56	=56
2.ryy	2.ryy	2.ryy	2.ryy	(4c\	-ca-	4c\	-ca-	(4g\	-ca-	(4ee\	-ca-	2.ryy	2.ryy	2.ryy	2.ryy	2.ryy	2.ryy	2.ryy	2.ryy	2.ryy	2.ryy
.	.	.	.	4F\)	.	4d\	-tur	4a\)	.	4ff\)	.	.	.	.	.	.	.	.	.	.	.
.	.	.	.	4G\	-tur	4B\	.	4f\	-tur	4dd\	-tur	.	.	.	.	.	.	.	.	.	.
=57	=57	=57	=57	=57	=57	=57	=57	=57	=57	=57	=57	=57	=57	=57	=57	=57	=57	=57	=57	=57	=57
!	!	!	!	!	!	!	!	!	!	!LO:LB:g=original	!	!	!	!	!	!	!	!	!	!	!
2.ryy	2.ryy	2.ryy	2.ryy	2c\	qui	2c\	qui	2e\	qui	2cc\	qui	2.ryy	2.ryy	2.ryy	2.ryy	2.ryy	2.ryy	2.ryy	2.ryy	2.ryy	2.ryy
.	.	.	.	4c\	lo-	4c\	lo-	4e\	lo-	4cc\	lo-	.	.	.	.	.	.	.	.	.	.
=58	=58	=58	=58	=58	=58	=58	=58	=58	=58	=58	=58	=58	=58	=58	=58	=58	=58	=58	=58	=58	=58
!	!	!	!	!LO:LB:g=original	!	!	!	!	!	!	!	!	!	!	!	!	!	!	!	!	!
2.ryy	2.ryy	2.ryy	2.ryy	4B\	-cu-	4d\	-cu-	4f\	-cu-	4dd\	-cu-	2.ryy	2.ryy	2.ryy	2.ryy	2.ryy	2.ryy	2.ryy	2.ryy	2.ryy	2.ryy
.	.	.	.	4B\	-tus	4d\	-tus	4f\	-tus	4dd\	-tus	.	.	.	.	.	.	.	.	.	.
.	.	.	.	4B\	est	4d\	eſt	4f\	est	4dd\	est	.	.	.	.	.	.	.	.	.	.
=59	=59	=59	=59	=59	=59	=59	=59	=59	=59	=59	=59	=59	=59	=59	=59	=59	=59	=59	=59	=59	=59
!	!	!	!	!	!	!LO:LB:g=original	!	!	!	!	!	!	!	!	!	!	!	!	!	!	!
2.ryy	2.ryy	2.ryy	2.ryy	2B-X\	per	2c\	per	2g\	per	2ee\	per	2.ryy	2.ryy	2.ryy	2.ryy	2.ryy	2.ryy	2.ryy	2.ryy	2.ryy	2.ryy
.	.	.	.	4B-\	pro-	4c\	Pro-	4g\	pro-	4ee\	Pro-	.	.	.	.	.	.	.	.	.	.
=60	=60	=60	=60	=60	=60	=60	=60	=60	=60	=60	=60	=60	=60	=60	=60	=60	=60	=60	=60	=60	=60
2.ryy	2.ryy	2.ryy	2.ryy	2A\	-phe-	2c\	-phe-	2a\	-phe-	2ff\	-phe-	2.ryy	2.ryy	2.ryy	2.ryy	2.ryy	2.ryy	2.ryy	2.ryy	2.ryy	2.ryy
.	.	.	.	4A\	-tas	4c\	-tas	4a\	-tas	4ff\	-tas	.	.	.	.	.	.	.	.	.	.
=61	=61	=61	=61	=61	=61	=61	=61	=61	=61	=61	=61	=61	=61	=61	=61	=61	=61	=61	=61	=61	=61
!	!	!	!	!	!	!	!	!LO:LB:g=original	!	!	!	!	!	!	!	!	!	!	!	!	!
2.ryy	2.ryy	2.ryy	2.ryy	4G\	et	4B\	et	4g\	et	4dd\	et	2.ryy	2.ryy	2.ryy	2.ryy	2.ryy	2.ryy	2.ryy	2.ryy	2.ryy	2.ryy
.	.	.	.	4G\	u-	4B\	u-	4g\	u-	4dd\	u-	.	.	.	.	.	.	.	.	.	.
!	!	!	!	!	!	!LO:SIC:v:l:s=-nam	!	!	!	!	!	!	!	!	!	!	!	!	!	!	!
.	.	.	.	4G\	-nam	4B\	-num	4g\	-nam	4dd\	-nam	.	.	.	.	.	.	.	.	.	.
=62	=62	=62	=62	=62	=62	=62	=62	=62	=62	=62	=62	=62	=62	=62	=62	=62	=62	=62	=62	=62	=62
2.ryy	2.ryy	2.ryy	2.ryy	2G\	San-	2B\	San-	2g\	San-	2dd\	San-	2.ryy	2.ryy	2.ryy	2.ryy	2.ryy	2.ryy	2.ryy	2.ryy	2.ryy	2.ryy
.	.	.	.	4G\	-ct(am)	4B\	-ctam	4g\	-ctam	4dd\	-ctam	.	.	.	.	.	.	.	.	.	.
=63	=63	=63	=63	=63	=63	=63	=63	=63	=63	=63	=63	=63	=63	=63	=63	=63	=63	=63	=63	=63	=63
2.ryy	2.ryy	2.ryy	2.ryy	4c\	Ec-	4c\	Ca-	4g\	Ca-	4ee\	Ca-	2.ryy	2.ryy	2.ryy	2.ryy	2.ryy	2.ryy	2.ryy	2.ryy	2.ryy	2.ryy
.	.	.	.	4F\	-cle-	4d\	-tho-	4a\	-tho-	4ff\	-tho-	.	.	.	.	.	.	.	.	.	.
.	.	.	.	4G\	-si-	4B\	-li-	4f\	-li-	4dd\	-li-	.	.	.	.	.	.	.	.	.	.
=64	=64	=64	=64	=64	=64	=64	=64	=64	=64	=64	=64	=64	=64	=64	=64	=64	=64	=64	=64	=64	=64
!	!	!	!	!	!	!	!	!	!	!LO:LB:g=original	!	!	!	!	!	!	!	!	!	!	!
2.ryy	2.ryy	2.ryy	2.ryy	4C/	-am	4c\	-cam	4e\	-cam	4cc\	-cam	2.ryy	2.ryy	2.ryy	2.ryy	2.ryy	2.ryy	2.ryy	2.ryy	2.ryy	2.ryy
.	.	.	.	4r	.	4r	.	4r	.	4r	.	.	.	.	.	.	.	.	.	.	.
!	!	!	!	!LO:SIC:v:t=custos E	!	!	!	!	!	!	!	!	!	!	!	!	!	!	!	!	!
.	.	.	.	4r	.	4r	.	4r	.	4r	.	.	.	.	.	.	.	.	.	.	.
=65	=65	=65	=65	=65	=65	=65	=65	=65	=65	=65	=65	=65	=65	=65	=65	=65	=65	=65	=65	=65	=65
!	!	!	!	!LO:PB:g=original	!	!	!	!	!	!	!	!	!	!	!	!	!	!	!	!	!
2.ryy	2.ryy	2.ryy	2.ryy	2.E\	Con-	2e\	con-	2b-X\	Co[n]-	2gg\	Con-	2.ryy	2.ryy	2.ryy	2.ryy	2.ryy	2.ryy	2.ryy	2.ryy	2.ryy	2.ryy
.	.	.	.	.	.	4e\	-fi-	4b-\	-fi-	4gg\	-fi-	.	.	.	.	.	.	.	.	.	.
=66	=66	=66	=66	=66	=66	=66	=66	=66	=66	=66	=66	=66	=66	=66	=66	=66	=66	=66	=66	=66	=66
2.ryy	2.ryy	2.ryy	2.ryy	4.F\	-fi-	2d\	-te-	2a\	-te-	2ff\	-te-	2.ryy	2.ryy	2.ryy	2.ryy	2.ryy	2.ryy	2.ryy	2.ryy	2.ryy	2.ryy
.	.	.	.	8F\	-te-	.	.	.	.	.	.	.	.	.	.	.	.	.	.	.	.
.	.	.	.	4F\	-or	4d\	-or	4a\	-or	4ff\	-or	.	.	.	.	.	.	.	.	.	.
=67	=67	=67	=67	=67	=67	=67	=67	=67	=67	=67	=67	=67	=67	=67	=67	=67	=67	=67	=67	=67	=67
2.ryy	2.ryy	2.ryy	2.ryy	4Bn\	u-	4d\	u-	4dd\	u-	4ff\	u-	2.ryy	2.ryy	2.ryy	2.ryy	2.ryy	2.ryy	2.ryy	2.ryy	2.ryy	2.ryy
.	.	.	.	4B\	-num	4d\	-num	4dd\	-num	4ff\	-num	.	.	.	.	.	.	.	.	.	.
!	!	!	!	!	!	!	!	!LO:LB:g=original	!	!	!	!	!	!	!	!	!	!	!	!	!
.	.	.	.	4B\	Bap-	4d\	Bap-	4dd\	Bap-	4ff\	Bap-	.	.	.	.	.	.	.	.	.	.
=68	=68	=68	=68	=68	=68	=68	=68	=68	=68	=68	=68	=68	=68	=68	=68	=68	=68	=68	=68	=68	=68
!	!	!	!	!	!	!LO:LB:g=original	!	!	!	!	!	!	!	!	!	!	!	!	!	!	!
2.ryy	2.ryy	2.ryy	2.ryy	2c\	-tis-	2e\	-tiſ-	2cc\	-tis-	2ee\	-tis-	2.ryy	2.ryy	2.ryy	2.ryy	2.ryy	2.ryy	2.ryy	2.ryy	2.ryy	2.ryy
.	.	.	.	4c\	-ma	4e\	-ma	4cc\	-ma	4ee\	-ma	.	.	.	.	.	.	.	.	.	.
=69	=69	=69	=69	=69	=69	=69	=69	=69	=69	=69	=69	=69	=69	=69	=69	=69	=69	=69	=69	=69	=69
2.ryy	2.ryy	2.ryy	2.ryy	8G\	in	4g\	in	4dd\	in	4ff\	in	2.ryy	2.ryy	2.ryy	2.ryy	2.ryy	2.ryy	2.ryy	2.ryy	2.ryy	2.ryy
.	.	.	.	8G\	re-	.	.	.	.	.	.	.	.	.	.	.	.	.	.	.	.
.	.	.	.	4G\	-miſ-	4g\	re-	4dd\	re-	4ff\	re-	.	.	.	.	.	.	.	.	.	.
.	.	.	.	4G\	-si-	4g\	-miſ-	4cc\	-mis-	4ee\	-mis-	.	.	.	.	.	.	.	.	.	.
=70	=70	=70	=70	=70	=70	=70	=70	=70	=70	=70	=70	=70	=70	=70	=70	=70	=70	=70	=70	=70	=70
2.ryy	2.ryy	2.ryy	2.ryy	2.G\	-o-	2g\	-si-	2bn\	-si-	2dd\	-si-	2.ryy	2.ryy	2.ryy	2.ryy	2.ryy	2.ryy	2.ryy	2.ryy	2.ryy	2.ryy
.	.	.	.	.	.	4g\	-o-	4cc\	-o-	4ee\	-o-	.	.	.	.	.	.	.	.	.	.
=71	=71	=71	=71	=71	=71	=71	=71	=71	=71	=71	=71	=71	=71	=71	=71	=71	=71	=71	=71	=71	=71
!	!	!	!	!	!	!	!	!	!	!LO:LB:g=original	!	!	!	!	!	!	!	!	!	!	!
2.ryy	2.ryy	2.ryy	2.ryy	4G\	-nem	4g\	-nem	4dd\	-nem	4ff\	-nem	2.ryy	2.ryy	2.ryy	2.ryy	2.ryy	2.ryy	2.ryy	2.ryy	2.ryy	2.ryy
.	.	.	.	4G\	pec-	4g\	pec-	4dd\	pec-	4ff\	pec-	.	.	.	.	.	.	.	.	.	.
.	.	.	.	4G\	-ca-	4g\	-ca-	4cc\	-ca-	4ee\	-ca-	.	.	.	.	.	.	.	.	.	.
=72	=72	=72	=72	=72	=72	=72	=72	=72	=72	=72	=72	=72	=72	=72	=72	=72	=72	=72	=72	=72	=72
!	!	!	!	!LO:LB:g=original	!	!	!	!	!	!	!	!	!	!	!	!	!	!	!	!	!
2.ryy	2.ryy	2.ryy	2.ryy	2G\	-to-	2g\	-to-	2b\	-to-	2dd\	-to-	2.ryy	2.ryy	2.ryy	2.ryy	2.ryy	2.ryy	2.ryy	2.ryy	2.ryy	2.ryy
!	!	!	!	!	!	!	!	!LO:SIC:l:v:s=-rum	!	!	!	!	!	!	!	!	!	!	!	!	!
.	.	.	.	4G\	-rum	4g\	-rum	4cc\	-rem	4ee\	-rum	.	.	.	.	.	.	.	.	.	.
=73	=73	=73	=73	=73	=73	=73	=73	=73	=73	=73	=73	=73	=73	=73	=73	=73	=73	=73	=73	=73	=73
2.ryy	2.ryy	2.ryy	2.ryy	2F#X\	pec-	2e-X\	pec-	2a\	pec-	2cc\	pec-	2.ryy	2.ryy	2.ryy	2.ryy	2.ryy	2.ryy	2.ryy	2.ryy	2.ryy	2.ryy
.	.	.	.	4F#\	-ca-	4e-\	-ca-	4a\	-ca-	4cc\	-ca-	.	.	.	.	.	.	.	.	.	.
=74	=74	=74	=74	=74	=74	=74	=74	=74	=74	=74	=74	=74	=74	=74	=74	=74	=74	=74	=74	=74	=74
!	!	!	!	!	!	!	!	!LO:LB:g=original	!	!	!	!	!	!	!	!	!	!	!	!	!
2.ryy	2.ryy	2.ryy	2.ryy	4G\	-to-	4d\	-to-	(8a\L	-to-	8cc\L	-to-	2.ryy	2.ryy	2.ryy	2.ryy	2.ryy	2.ryy	2.ryy	2.ryy	2.ryy	2.ryy
.	.	.	.	.	.	.	.	8g\J)	.	8b\J	.	.	.	.	.	.	.	.	.	.	.
!	!	!	!	!	!	!	!	!LO:SIC:l:v:s=-rum	!	!	!	!	!	!	!	!	!	!	!	!	!
.	.	.	.	4G\	-rum	4d\	-rum	4g\	-rem	4b\	-rum	.	.	.	.	.	.	.	.	.	.
!	!	!	!	!	!	!	!	!LO:TX:a:i:t=Solo	!	!LO:TX:a:i:t=Solo	!	!	!	!	!	!	!	!	!	!	!
.	.	.	.	4r	.	4r	.	4r	.	4r	.	.	.	.	.	.	.	.	.	.	.
=75	=75	=75	=75	=75	=75	=75	=75	=75	=75	=75	=75	=75	=75	=75	=75	=75	=75	=75	=75	=75	=75
!	!	!	!	!LO:TX:a:t=2.	!	!LO:TX:a:t=2	!	!	!	!	!	!	!	!	!	!	!	!	!	!	!
2.ryy	2.ryy	2.ryy	2.ryy	1.r	.	1.r	.	(4cc\	et	(4ee\	Et-	2.ryy	2.ryy	2.ryy	2.ryy	2.ryy	2.ryy	2.ryy	2.ryy	2.ryy	2.ryy
.	.	.	.	.	.	.	.	4b\)	.	4dd\	.	.	.	.	.	.	.	.	.	.	.
.	.	.	.	.	.	.	.	4cc\	ex-	4ee\)	-ex-	.	.	.	.	.	.	.	.	.	.
=76	=76	=76	=76	=76	=76	=76	=76	=76	=76	=76	=76	=76	=76	=76	=76	=76	=76	=76	=76	=76	=76
2.ryy	2.ryy	2.ryy	2.ryy	.	.	.	.	(8dd\L	-spe-	8ff\L	-pe-	2.ryy	2.ryy	2.ryy	2.ryy	2.ryy	2.ryy	2.ryy	2.ryy	2.ryy	2.ryy
.	.	.	.	.	.	.	.	8b\J)	.	8dd\J	.	.	.	.	.	.	.	.	.	.	.
.	.	.	.	.	.	.	.	4b\	-cto	4dd\	-cto	.	.	.	.	.	.	.	.	.	.
.	.	.	.	.	.	.	.	4r	.	4r	.	.	.	.	.	.	.	.	.	.	.
=77	=77	=77	=77	=77	=77	=77LO:LB:g=original	=77	=77	=77	=77	=77	=77	=77	=77	=77	=77	=77	=77	=77	=77	=77
!	!	!	!	!LO:SIC:v:l:s=re-	!	!	!	!	!	!	!	!	!	!	!	!	!	!	!	!	!
!	!	!	!	!LO:TX:a:i:t=Solo	!	!LO:TX:a:i:t=Solo	!	!LO:TX:a:t=2.	!	!LO:TX:a:t=2.	!	!	!	!	!	!	!	!	!	!	!
2.ryy	2.ryy	2.ryy	2.ryy	8B\	reſ-	8d\	re-	1.r	.	1.r	.	2.ryy	2.ryy	2.ryy	2.ryy	2.ryy	2.ryy	2.ryy	2.ryy	2.ryy	2.ryy
.	.	.	.	8B\	-sur-	8d\	-su[r]-	.	.	.	.	.	.	.	.	.	.	.	.	.	.
.	.	.	.	4A#X\	-re-	4c#X\	-re-	.	.	.	.	.	.	.	.	.	.	.	.	.	.
.	.	.	.	4B\	-cti-	4d\	-cti-	.	.	.	.	.	.	.	.	.	.	.	.	.	.
=78	=78	=78	=78	=78	=78	=78	=78	=78	=78	=78	=78	=78	=78	=78	=78	=78	=78	=78	=78	=78	=78
!	!	!	!	!	!	!LO:LB:g=original	!	!	!	!	!	!	!	!	!	!	!	!	!	!	!
2.ryy	2.ryy	2.ryy	2.ryy	4c\	-o-	4e\	-o-	.	.	.	.	2.ryy	2.ryy	2.ryy	2.ryy	2.ryy	2.ryy	2.ryy	2.ryy	2.ryy	2.ryy
.	.	.	.	4E\	-nem	4cn\	-nem	.	.	.	.	.	.	.	.	.	.	.	.	.	.
.	.	.	.	4r	.	4r	.	.	.	.	.	.	.	.	.	.	.	.	.	.	.
=79	=79	=79	=79	=79	=79	=79	=79	=79	=79	=79	=79	=79	=79	=79	=79	=79	=79	=79	=79	=79	=79
!	!	!	!	!LO:TX:a:t=2.	!	!LO:TX:a:t=2	!	!	!	!LO:PB:g=original	!	!	!	!	!	!	!	!	!	!	!
2.ryy	2.ryy	2.ryy	2.ryy	1.r	.	1.r	.	8cc\	re-	8ee\	re-	2.ryy	2.ryy	2.ryy	2.ryy	2.ryy	2.ryy	2.ryy	2.ryy	2.ryy	2.ryy
.	.	.	.	.	.	.	.	8cc\	-sur-	8ee\	-sur-	.	.	.	.	.	.	.	.	.	.
.	.	.	.	.	.	.	.	4b\	-re-	4dd\	-re-	.	.	.	.	.	.	.	.	.	.
.	.	.	.	.	.	.	.	4cc\	-cti-	4ee\	-cti-	.	.	.	.	.	.	.	.	.	.
=80	=80	=80	=80	=80	=80	=80	=80	=80	=80	=80	=80	=80	=80	=80	=80	=80	=80	=80	=80	=80	=80
2.ryy	2.ryy	2.ryy	2.ryy	.	.	.	.	8dd\L	-o-	8ff\L	-o-	2.ryy	2.ryy	2.ryy	2.ryy	2.ryy	2.ryy	2.ryy	2.ryy	2.ryy	2.ryy
.	.	.	.	.	.	.	.	8b\J	.	8dd\J	.	.	.	.	.	.	.	.	.	.	.
.	.	.	.	.	.	.	.	4b\	-nem	4dd\	-nem	.	.	.	.	.	.	.	.	.	.
.	.	.	.	.	.	.	.	4r	.	4r	.	.	.	.	.	.	.	.	.	.	.
=81	=81	=81	=81	=81	=81	=81	=81	=81	=81	=81	=81	=81	=81	=81	=81	=81	=81	=81	=81	=81	=81
!	!	!	!	!	!	!	!	!LO:TX:a:t=2.	!	!LO:TX:a:t=2.	!	!	!	!	!	!	!	!	!	!	!
!	!	!	!	!	!	!	!	!LO:LB:g=original	!	!	!	!	!	!	!	!	!	!	!	!	!
2.ryy	2.ryy	2.ryy	2.ryy	(4B\	mor-	4d\	mor-	1.r	.	1.r	.	2.ryy	2.ryy	2.ryy	2.ryy	2.ryy	2.ryy	2.ryy	2.ryy	2.ryy	2.ryy
.	.	.	.	4A#X\)	.	4c#X\	.	.	.	.	.	.	.	.	.	.	.	.	.	.	.
.	.	.	.	4B\	-tu-	4d\	-tu-	.	.	.	.	.	.	.	.	.	.	.	.	.	.
=82	=82	=82	=82	=82	=82	=82	=82	=82	=82	=82	=82	=82	=82	=82	=82	=82	=82	=82	=82	=82	=82
!	!	!	!	!LO:LB:g=original	!	!	!	!	!	!	!	!	!	!	!	!	!	!	!	!	!
2.ryy	2.ryy	2.ryy	2.ryy	4c\	-o-	4e\	-o-	.	.	.	.	2.ryy	2.ryy	2.ryy	2.ryy	2.ryy	2.ryy	2.ryy	2.ryy	2.ryy	2.ryy
.	.	.	.	4E\	-rum	4cn\	-rum	.	.	.	.	.	.	.	.	.	.	.	.	.	.
.	.	.	.	4r	.	4r	.	.	.	.	.	.	.	.	.	.	.	.	.	.	.
=83	=83	=83	=83	=83	=83	=83	=83	=83	=83	=83	=83	=83	=83	=83	=83	=83	=83	=83	=83	=83	=83
2.ryy	2.ryy	2.ryy	2.ryy	4E\	Et	4c\	et	4g\	Et	4b-X\	et	2.ryy	2.ryy	2.ryy	2.ryy	2.ryy	2.ryy	2.ryy	2.ryy	2.ryy	2.ryy
.	.	.	.	4E\	vi-	4c\	vi-	4g\	vi-	4b-\	vi-	.	.	.	.	.	.	.	.	.	.
.	.	.	.	4E\	-tam	4c\	-tam	4g\	-tam	4b-\	-tam	.	.	.	.	.	.	.	.	.	.
=84	=84	=84	=84	=84	=84	=84	=84	=84	=84	=84	=84	=84	=84	=84	=84	=84	=84	=84	=84	=84	=84
*	*	*	*	*	*ij	*	*	*	*	*	*	*	*	*	*	*	*	*	*	*	*
2.ryy	2.ryy	2.ryy	2.ryy	2F\	vi-	2c\	vi-	2f\	[[vi-	2a\	vi-	2.ryy	2.ryy	2.ryy	2.ryy	2.ryy	2.ryy	2.ryy	2.ryy	2.ryy	2.ryy
.	.	.	.	4F\	-tam	4c\	-tam	4f\	-tam]]	4a\	-tam	.	.	.	.	.	.	.	.	.	.
*	*	*	*	*	*Xij	*	*	*	*	*	*	*	*	*	*	*	*	*	*	*	*
=85	=85	=85	=85	=85	=85	=85	=85	=85	=85	=85	=85	=85	=85	=85	=85	=85	=85	=85	=85	=85	=85
2.ryy	2.ryy	2.ryy	2.ryy	4C#X/	ven-	4e\	ven-	4e\	ven-	4gg\	ve[n]-	2.ryy	2.ryy	2.ryy	2.ryy	2.ryy	2.ryy	2.ryy	2.ryy	2.ryy	2.ryy
.	.	.	.	4C#/	-tu-	4e\	-tu-	4e\	-tu-	4gg\	-tu-	.	.	.	.	.	.	.	.	.	.
.	.	.	.	4C#/	-ri	4e\	-ri	4e\	-ri	4gg\	-ri	.	.	.	.	.	.	.	.	.	.
=86	=86	=86	=86	=86	=86	=86	=86	=86	=86	=86	=86	=86	=86	=86	=86	=86	=86	=86	=86	=86	=86
!	!	!	!	!	!	!	!	!	!LO:LB:g=original	!	!	!	!	!	!	!	!	!	!	!	!
2.ryy	2.ryy	2.ryy	2.ryy	4.D\	Sae-	4.d\	Se-	4.f\	S[a]e-	4.ff\	Sae-	2.ryy	2.ryy	2.ryy	2.ryy	2.ryy	2.ryy	2.ryy	2.ryy	2.ryy	2.ryy
.	.	.	.	8D\	-cu-	8d\	-cu-	8f\	-cu-	8ee\	-cu-	.	.	.	.	.	.	.	.	.	.
!	!	!	!	!	!	!	!	!LO:SIC:v:l:s=-li	!	!	!	!	!	!	!	!	!	!	!	!	!
.	.	.	.	4D\	-li	4d\	-li	4f\	-la	4ff\	-li	.	.	.	.	.	.	.	.	.	.
=87	=87	=87	=87	=87	=87	=87	=87	=87	=87	=87	=87	=87	=87	=87	=87	=87	=87	=87	=87	=87	=87
2.ryy	2.ryy	2.ryy	2.ryy	4B\	ven-	4g\	ven-	4dd\	ven-	4ff\	ven-	2.ryy	2.ryy	2.ryy	2.ryy	2.ryy	2.ryy	2.ryy	2.ryy	2.ryy	2.ryy
.	.	.	.	4B\	-tu-	4g\	-tu-	4dd\	-tu-	4ff\	-tu-	.	.	.	.	.	.	.	.	.	.
!	!	!	!	!	!	!	!	!LO:TX:b:t=V&colon; S&colon;	!	!	!	!	!	!	!	!	!	!	!	!	!
.	.	.	.	4B\	-ri	4g\	-ri	4dd\	-ri	4ff\	-ri	.	.	.	.	.	.	.	.	.	.
=88	=88	=88	=88	=88	=88	=88	=88	=88	=88	=88	=88	=88	=88	=88	=88	=88	=88	=88	=88	=88	=88
!	!	!	!	!	!	!LO:LB:g=original	!	!LO:PB:g=original	!	!	!	!	!	!	!	!	!	!	!	!	!
2.ryy	2.ryy	2.ryy	2.ryy	4c\	Sae-	4e\	Sae-	4g\	S[a]e-	4ee\	Sae-	2.ryy	2.ryy	2.ryy	2.ryy	2.ryy	2.ryy	2.ryy	2.ryy	2.ryy	2.ryy
.	.	.	.	4G\	-cu-	4d\	-cu-	4f\	-cu-	4dd\	-cu-	.	.	.	.	.	.	.	.	.	.
.	.	.	.	4C/	-li	4c\	-li	4e\	-li	4cc\	-li	.	.	.	.	.	.	.	.	.	.
=89	=89	=89	=89	=89	=89	=89	=89	=89	=89	=89	=89	=89	=89	=89	=89	=89	=89	=89	=89	=89	=89
2.ryy	2.ryy	2.ryy	2.ryy	2F\	A-	2B\	A-	2g\	A-	2dd\	A-	2.ryy	2.ryy	2.ryy	2.ryy	2.ryy	2.ryy	2.ryy	2.ryy	2.ryy	2.ryy
.	.	.	.	4E\	-men	4c\	-men	4g\	-men	4ee\	-men	.	.	.	.	.	.	.	.	.	.
=90	=90	=90	=90	=90	=90	=90	=90	=90	=90	=90	=90	=90	=90	=90	=90	=90	=90	=90	=90	=90	=90
*	*	*	*	*	*ij	*	*ij	*	*ij	*	*ij	*	*	*	*	*	*	*	*	*	*
!	!	!	!	!LO:LB:g=original	!	!	!	!	!	!	!	!	!	!	!	!	!	!	!	!	!
2.ryy	2.ryy	2.ryy	2.ryy	2F\	A-	2B\	A-	2g\	A-	2dd\	A-	2.ryy	2.ryy	2.ryy	2.ryy	2.ryy	2.ryy	2.ryy	2.ryy	2.ryy	2.ryy
.	.	.	.	4E\	-men	4c\	-men	4g\	-men	4ee\	-men	.	.	.	.	.	.	.	.	.	.
*	*	*	*	*	*Xij	*	*Xij	*	*Xij	*	*Xij	*	*	*	*	*	*	*	*	*	*
=91	=91	=91	=91	=91	=91	=91	=91	=91	=91	=91	=91	=91	=91	=91	=91	=91	=91	=91	=91	=91	=91
2.ryy	2.ryy	2.ryy	2.ryy	4F\	A-	4c\	A-	4a\	a-	4ff\	a-	2.ryy	2.ryy	2.ryy	2.ryy	2.ryy	2.ryy	2.ryy	2.ryy	2.ryy	2.ryy
.	.	.	.	2G\	.	2d\	.	2g\	.	4ee\	.	.	.	.	.	.	.	.	.	.	.
.	.	.	.	.	.	.	.	.	.	4dd\	.	.	.	.	.	.	.	.	.	.	.
=92	=92	=92	=92	=92	=92	=92	=92	=92	=92	=92	=92	=92	=92	=92	=92	=92	=92	=92	=92	=92	=92
2.ryy	2.ryy	2.ryy	2.ryy	8C/	-men	8c\	-men	4cc\	-men	8cc\	-men	2.ryy	2.ryy	2.ryy	2.ryy	2.ryy	2.ryy	2.ryy	2.ryy	2.ryy	2.ryy
!	!	!	!	!	!	!	!	!	!	!LO:LB:g=original	!	!	!	!	!	!	!	!	!	!	!
.	.	.	.	8c\L	a-	8c\	a-	.	.	(8ee\L	a-	.	.	.	.	.	.	.	.	.	.
.	.	.	.	8B\	.	8B\L	.	2cc\	a-	8dd\	.	.	.	.	.	.	.	.	.	.	.
.	.	.	.	8B-X\	.	8c\	.	.	.	8ee\	.	.	.	.	.	.	.	.	.	.	.
.	.	.	.	8A\	.	8d\	.	.	.	8ff\	.	.	.	.	.	.	.	.	.	.	.
.	.	.	.	8G\J	.	8e\J	.	.	.	8gg\J)	.	.	.	.	.	.	.	.	.	.	.
=93	=93	=93	=93	=93	=93	=93	=93	=93	=93	=93	=93	=93	=93	=93	=93	=93	=93	=93	=93	=93	=93
2.ryy	2.ryy	2.ryy	2.ryy	2.F\	.	4.f\	-men	2.cc\	.	4.aa\	-men	2.ryy	2.ryy	2.ryy	2.ryy	2.ryy	2.ryy	2.ryy	2.ryy	2.ryy	2.ryy
.	.	.	.	.	.	(8e\	a-	.	.	(8gg\L	a-	.	.	.	.	.	.	.	.	.	.
.	.	.	.	.	.	8d\L)	.	.	.	8ff\	.	.	.	.	.	.	.	.	.	.	.
.	.	.	.	.	.	8c\J	.	.	.	8ee\J)	.	.	.	.	.	.	.	.	.	.	.
=94	=94	=94	=94	=94	=94	=94	=94	=94	=94	=94	=94	=94	=94	=94	=94	=94	=94	=94	=94	=94	=94
2.ryy	2.ryy	2.ryy	2.ryy	4G\	-men	4d\	-men	2.b\	.	4dd\	-men	2.ryy	2.ryy	2.ryy	2.ryy	2.ryy	2.ryy	2.ryy	2.ryy	2.ryy	2.ryy
!	!	!	!	!	!	!LO:TX:t=P:problem:takt wykreślony	!	!	!	!	!	!	!	!	!	!	!	!	!	!	!
.	.	.	.	2G\	a-	2d\	a-	.	.	2gg\	a-	.	.	.	.	.	.	.	.	.	.
=95	=95	=95	=95	=95	=95	=95	=95	=95	=95	=95	=95	=95	=95	=95	=95	=95	=95	=95	=95	=95	=95
!	!	!	!	!	!	!LO:LB:g=original	!	!LO:LB:g=original	!	!	!	!	!	!	!	!	!	!	!	!	!
2.ryy	2.ryy	2.ryy	2.ryy	8C/	-men	8c\	-men	4cc\	-men	8ee\	-men	2.ryy	2.ryy	2.ryy	2.ryy	2.ryy	2.ryy	2.ryy	2.ryy	2.ryy	2.ryy
.	.	.	.	8c\L	a-	8c\	a-	.	.	(8ee\L	a-	.	.	.	.	.	.	.	.	.	.
.	.	.	.	8B\	.	8B\L	.	2cc\	a-	8dd\	.	.	.	.	.	.	.	.	.	.	.
.	.	.	.	8B-X\	.	8c\	.	.	.	8ee\	.	.	.	.	.	.	.	.	.	.	.
.	.	.	.	8A\	.	8d\	.	.	.	8ff\	.	.	.	.	.	.	.	.	.	.	.
.	.	.	.	8G\J	.	8e\J	.	.	.	8gg\J)	.	.	.	.	.	.	.	.	.	.	.
=96	=96	=96	=96	=96	=96	=96	=96	=96	=96	=96	=96	=96	=96	=96	=96	=96	=96	=96	=96	=96	=96
2.ryy	2.ryy	2.ryy	2.ryy	2.F\	.	4.f\	-men	2.cc\	.	4.aa\	-men	2.ryy	2.ryy	2.ryy	2.ryy	2.ryy	2.ryy	2.ryy	2.ryy	2.ryy	2.ryy
.	.	.	.	.	.	(8e\	a-	.	.	8gg\L	a-	.	.	.	.	.	.	.	.	.	.
.	.	.	.	.	.	8d\L	.	.	.	8ff\	.	.	.	.	.	.	.	.	.	.	.
.	.	.	.	.	.	8c\J)	.	.	.	8ee\J	.	.	.	.	.	.	.	.	.	.	.
=97	=97	=97	=97	=97	=97	=97	=97	=97	=97	=97	=97	=97	=97	=97	=97	=97	=97	=97	=97	=97	=97
!	!	!	!	!LO:LB:g=original	!	!	!	!	!	!	!	!	!	!	!	!	!	!	!	!	!
2.ryy	2.ryy	2.ryy	2.ryy	4G\	-men	4d\	-men	2.b\	.	4dd\	-men	2.ryy	2.ryy	2.ryy	2.ryy	2.ryy	2.ryy	2.ryy	2.ryy	2.ryy	2.ryy
.	.	.	.	2G\	a-	2d\	a-	.	.	2gg\	A-	.	.	.	.	.	.	.	.	.	.
=98	=98	=98	=98	=98	=98	=98	=98	=98	=98	=98	=98	=98	=98	=98	=98	=98	=98	=98	=98	=98	=98
2.ryy	2.ryy	2.ryy	2.ryy	4C/	-men.	4c\	-men.	4cc\	-men	4ee\	-men.	2.ryy	2.ryy	2.ryy	2.ryy	2.ryy	2.ryy	2.ryy	2.ryy	2.ryy	2.ryy
.	.	.	.	4r	.	4r	.	4r	.	4r	.	.	.	.	.	.	.	.	.	.	.
.	.	.	.	4r	.	4r	.	4r	.	4r	.	.	.	.	.	.	.	.	.	.	.
=99	=99	=99	=99	=99	=99	=99	=99	=99	=99	=99	=99	=99	=99	=99	=99	=99	=99	=99	=99	=99	=99
!	!	!	!	!LO:TX:a:t=5.	!	!LO:TX:a:t=5	!	!LO:TX:b:t=5	!	!LO:TX:b:t=5	!	!	!	!	!	!	!	!	!	!	!
2.ryy	2.ryy	2.ryy	2.ryy	0.r	.	0.r	.	0.r	.	0.r	.	2.ryy	2.ryy	2.ryy	2.ryy	2.ryy	2.ryy	2.ryy	2.ryy	2.ryy	2.ryy
=100	=100	=100	=100	=100	=100	=100	=100	=100	=100	=100	=100	=100	=100	=100	=100	=100	=100	=100	=100	=100	=100
2.ryy	2.ryy	2.ryy	2.ryy	.	.	.	.	.	.	.	.	2.ryy	2.ryy	2.ryy	2.ryy	2.ryy	2.ryy	2.ryy	2.ryy	2.ryy	2.ryy
=101	=101	=101	=101	=101	=101	=101	=101	=101	=101	=101	=101	=101	=101	=101	=101	=101	=101	=101	=101	=101	=101
2.ryy	2.ryy	2.ryy	2.ryy	.	.	.	.	.	.	.	.	2.ryy	2.ryy	2.ryy	2.ryy	2.ryy	2.ryy	2.ryy	2.ryy	2.ryy	2.ryy
=102	=102	=102	=102	=102	=102	=102	=102	=102	=102	=102	=102	=102	=102	=102	=102	=102	=102	=102	=102	=102	=102
2.ryy	2.ryy	2.ryy	2.ryy	.	.	.	.	.	.	.	.	2.ryy	2.ryy	2.ryy	2.ryy	2.ryy	2.ryy	2.ryy	2.ryy	2.ryy	2.ryy
=103	=103	=103	=103	=103	=103	=103	=103	=103	=103	=103	=103	=103	=103	=103	=103	=103	=103	=103	=103	=103	=103
2.ryy	2.ryy	2.ryy	2.ryy	2.r	.	2.r	.	2.r	.	2.r	.	2.ryy	2.ryy	2.ryy	2.ryy	2.ryy	2.ryy	2.ryy	2.ryy	2.ryy	2.ryy
==	==	==	==	==	==	==	==	==	==	==	==	==	==	==	==	==	==	==	==	==	==
*-	*-	*-	*-	*-	*-	*-	*-	*-	*-	*-	*-	*-	*-	*-	*-	*-	*-	*-	*-	*-	*-
!!!system-decoration: [(s1,s2,s3,s4,s5,s6)][(s7,s8,s9)](s10)[(s11,s12,s13,s14)][(s15,s16,s17)]s18
!!!ENC: Andrzej Borzym
!!!END: 2020-10-08
!!!ENC: Krzysztof Stępień
!!!END: 2021-10-25
